X: 102
T: jmn polska (even polska)
C: efter maarten decombel
M: 3/4
L: 1/16
R: jmn polska
K: Dm
|:a4 d4 z2f2|e2d2 c4 A4|d3c d2e2 f2g2|g2a2 abag a4|
|a4 d4 z2f2|e2d2 c4 A4|d3c d2e2 f2g2|1 g2a2 a6 z2:|2 a2c2 d8|
|:f3g a2ba g2f2|e3f g2ag f2e2|f3g a2ba g2f2|e3f g2ag f2e2|
|d3c d2e2 f2g2|a2c2 d8:|
